src/xmb/monochrome/movies.svg

<?xml version="1.0" encoding="UTF-8" standalone="no"?>
<!-- Generator: Adobe Illustrator 16.0.0, SVG Export Plug-In . SVG Version: 6.00 Build 0)  -->

<svg
   xmlns:dc="http://purl.org/dc/elements/1.1/"
   xmlns:cc="http://creativecommons.org/ns#"
   xmlns:rdf="http://www.w3.org/1999/02/22-rdf-syntax-ns#"
   xmlns:svg="http://www.w3.org/2000/svg"
   xmlns="http://www.w3.org/2000/svg"
   xmlns:sodipodi="http://sodipodi.sourceforge.net/DTD/sodipodi-0.dtd"
   xmlns:inkscape="http://www.inkscape.org/namespaces/inkscape"
   version="1.1"
   id="svg2"
   inkscape:export-filename="/home/kivutar/libretro-super/retroarch/media/assets/xmb/monochrome/png/movies.png"
   inkscape:export-xdpi="360"
   inkscape:version="0.91 r13725"
   inkscape:export-ydpi="360"
   sodipodi:docname="movies.svg"
   x="0px"
   y="0px"
   width="64px"
   height="64px"
   viewBox="0 128 64 64"
   enable-background="new 0 128 64 64"
   xml:space="preserve"><metadata
     id="metadata8"><rdf:RDF><cc:Work
         rdf:about=""><dc:format>image/svg+xml</dc:format><dc:type
           rdf:resource="http://purl.org/dc/dcmitype/StillImage" /><dc:title /></cc:Work></rdf:RDF></metadata><defs
     id="defs6" /><sodipodi:namedview
     pagecolor="#808080"
     bordercolor="#666666"
     borderopacity="1"
     objecttolerance="10"
     gridtolerance="10"
     guidetolerance="10"
     inkscape:pageopacity="0"
     inkscape:pageshadow="2"
     inkscape:window-width="1440"
     inkscape:window-height="836"
     id="namedview4"
     showgrid="true"
     inkscape:zoom="7.375"
     inkscape:cx="22.915421"
     inkscape:cy="27.186638"
     inkscape:window-x="0"
     inkscape:window-y="27"
     inkscape:window-maximized="1"
     inkscape:current-layer="svg2"><inkscape:grid
       type="xygrid"
       id="grid4172"
       spacingx="4"
       spacingy="4"
       empspacing="4" /></sodipodi:namedview><path
     style="fill:#ffffff"
     d="M 32 5 C 9.585 5 5 9.5549532 5 32.001953 C 5 54.448953 9.514 59 32 59 C 54.489 59 59 54.457953 59 32.001953 C 59 9.5439532 54.415 5 32 5 z M 24 12 A 8 8 0 0 1 32 20 A 8 8 0 0 1 40 12 A 8 8 0 0 1 48 20 A 8 8 0 0 1 45.445312 25.847656 C 45.792735 26.469167 46 27.204715 46 28 C 47.108 28 48 28.892 48 30 L 54 28 L 54 36 L 48 34 C 48 35.108 47.108 36 46 36 C 46 38.216 44.439 40 42.5 40 L 36 40 A 4 4 0 0 1 34.978516 42.664062 L 40.832031 51.445312 A 1.0001 1.0001 0 1 1 39.167969 52.554688 L 33.314453 43.773438 A 4 4 0 0 1 32.992188 43.871094 A 1.0001 1.0001 0 0 1 33 44 L 33 52 A 1.0001 1.0001 0 1 1 31 52 L 31 44 A 1.0001 1.0001 0 0 1 31.007812 43.871094 A 4 4 0 0 1 30.685547 43.773438 L 24.832031 52.554688 A 1.0001 1.0001 0 1 1 23.167969 51.445312 L 29.023438 42.664062 A 4 4 0 0 1 28 40 L 21.5 40 C 19.561 40 18 38.216 18 36 L 18 28 C 18 27.205673 18.206083 26.470655 18.552734 25.849609 A 8 8 0 0 1 16 20 A 8 8 0 0 1 24 12 z M 32 20 A 8 8 0 0 1 30.916016 24 L 33.080078 24 A 8 8 0 0 1 32 20 z M 24 18 A 2 2 0 0 0 22 20 A 2 2 0 0 0 24 22 A 2 2 0 0 0 26 20 A 2 2 0 0 0 24 18 z M 40 18 A 2 2 0 0 0 38 20 A 2 2 0 0 0 40 22 A 2 2 0 0 0 42 20 A 2 2 0 0 0 40 18 z "
     transform="translate(0,128)"
     id="Utilities" /></svg>

<svg xmlns="http://www.w3.org/2000/svg" xml:space="preserve" width="64" height="64" viewBox="0 128 64 64"><path d="M32 5C9.585 5 5 9.555 5 32.002S9.514 59 32 59c22.489 0 27-4.542 27-26.998C59 9.544 54.415 5 32 5m-8 7a8 8 0 0 1 8 8 8 8 0 0 1 8-8 8 8 0 0 1 8 8 8 8 0 0 1-2.555 5.848c.348.621.555 1.357.555 2.152 1.108 0 2 .892 2 2l6-2v8l-6-2c0 1.108-.892 2-2 2 0 2.216-1.561 4-3.5 4H36a4 4 0 0 1-1.021 2.664l5.853 8.781a1 1 0 1 1-1.664 1.11l-5.854-8.782a4 4 0 0 1-.322.098A1 1 0 0 1 33 44v8a1 1 0 1 1-2 0v-8a1 1 0 0 1 .008-.129 4 4 0 0 1-.322-.098l-5.854 8.782a1 1 0 1 1-1.664-1.11l5.855-8.78A4 4 0 0 1 28 40h-6.5c-1.939 0-3.5-1.784-3.5-4v-8c0-.794.206-1.53.553-2.15A8 8 0 0 1 16 20a8 8 0 0 1 8-8m8 8a8 8 0 0 1-1.084 4h2.164A8 8 0 0 1 32 20m-8-2a2 2 0 0 0-2 2 2 2 0 0 0 2 2 2 2 0 0 0 2-2 2 2 0 0 0-2-2m16 0a2 2 0 0 0-2 2 2 2 0 0 0 2 2 2 2 0 0 0 2-2 2 2 0 0 0-2-2" style="fill:#fff" transform="translate(0 128)"/></svg>
